assets/Person playing handball/Default/Flat/person_playing_handball_flat_default.svg

<svg width="32" height="32" viewBox="0 0 32 32" fill="none" xmlns="http://www.w3.org/2000/svg">
<path d="M16.1103 7.54004L17.2803 9.53004L15.2503 10.75L14.0803 8.72004L16.1103 7.54004Z" fill="#FCB100"/>
<path d="M23.5294 8.74395L24.7097 5.5105L24.8402 5.19009C24.9302 4.94009 25.1002 4.45009 24.9902 4.17009C24.8802 3.90009 24.5302 3.62009 24.1102 3.48009C24.1102 3.48009 23.5902 3.32009 23.1402 3.42009C22.8002 3.50009 22.8602 3.89009 22.8602 3.89009C22.8602 3.89009 22.7402 3.98009 22.4402 4.20009C22.1429 4.41245 22.2727 4.80522 22.4207 5.08128L21.3721 7.95373C21.2721 8.22294 21.0389 8.41273 20.7695 8.45568L20.7541 8.45813L17.2688 9.111L17.6918 11.3691L21.1483 10.7217C22.2505 10.5395 23.1496 9.7726 23.5279 8.74794L23.5294 8.74395ZM6.44034 13.5699C6.63249 13.7435 6.8525 13.8719 7.08607 13.954C10.4007 15.7783 14.5813 14.6401 16.4935 11.3467L14.5068 10.1931C13.2195 12.4101 10.3971 13.1741 8.16381 11.9246L7.74034 11.5499C7.38034 11.2399 6.92034 11.0599 6.44034 11.0599H5.07034C4.82034 11.0499 4.62034 11.2399 4.60034 11.4799H4.49034C4.23034 11.4799 4.01034 11.6799 4.00034 11.9399C3.99034 12.1999 4.20034 12.4199 4.47034 12.4299C4.46034 12.4699 4.45034 12.5199 4.45034 12.5699C4.45034 12.8299 4.66034 13.0399 4.92034 13.0399H5.84034L6.44034 13.5699ZM8.58936 22.5H11.0476C11.0041 22.5852 10.9802 22.6809 10.9802 22.7799L11.0002 28.0299H9.00025L8.58936 22.5ZM19.5 24.7854L25.0902 24.9L24.9002 23.1L19.5002 22.27L19.5 22.269V24.7854Z" fill="#FFC83D"/>
<path d="M15.0203 18.8001L16.6303 22.7301L19.1403 21.8801C19.7503 21.6701 20.0903 21.0101 19.8903 20.3901L18.7703 16.8301L15.0203 18.8001Z" fill="#636363"/>
<path d="M10.9702 18.8899L12.8002 21.8399C13.2002 22.4999 14.1002 22.6499 14.6902 22.1399L17.6702 19.5799C17.6702 19.5799 18.9202 18.4199 18.8602 17.4699C18.8002 16.5199 18.3602 15.6499 18.3602 15.6499L13.3402 17.6799" fill="#9B9B9B"/>
<path d="M24.5401 6.02995L22.2801 5.19995C22.2801 5.19995 21.9101 6.29995 21.8901 6.53995L24.0801 7.27995L24.5401 6.02995ZM13.8302 10.53C13.5002 10.92 11.9902 14.37 13.3402 17.68L18.7102 16.58C18.8362 16.3701 18.7498 16.2357 18.626 16.043C18.5435 15.9145 18.4442 15.7601 18.3802 15.54C17.9318 13.9804 17.9775 12.6583 17.9801 12.5833L17.9802 12.58C17.7302 12.3 17.5702 12.54 17.5702 12.54L13.8302 10.53ZM6.54028 13.68L7.93028 11.72C8.58028 12.06 9.06028 12.32 9.05028 12.32L7.70028 14.29C7.48028 14.21 6.54028 13.68 6.54028 13.68ZM11.6103 22.0899C11.9603 21.9599 12.6703 21.6199 12.6703 21.6199L10.9703 18.8899L9.29027 19.7799C9.29027 19.7799 8.77027 19.9299 8.52027 20.4299C8.09027 21.2899 8.60027 22.5899 8.60027 22.5899H10.9703C10.9703 22.5899 11.1903 22.2499 11.6103 22.0899ZM19.9501 22.33V24.79C19.9501 24.79 18.0001 25.03 17.4901 24.57C17.0501 24.18 16.9101 23.72 16.6301 22.73L19.3901 21.78L19.5001 22.27L19.9501 22.33Z" fill="#FF6723"/>
<path d="M18.0875 11.9113C18.066 12.1389 18.0252 12.3848 17.9601 12.65C17.4601 14.71 13.6301 11.02 13.6301 11.02C13.6301 11.02 13.9201 9.81996 14.9901 9.41996C15.4262 9.25574 15.8061 9.19653 16.1267 9.19605L19.2503 8.72998L19.5603 11.06C19.6003 11.37 19.4003 11.65 19.0903 11.71L18.0875 11.9113Z" fill="#FF8101"/>
<path d="M22.5 6C23.6046 6 24.5 5.10457 24.5 4C24.5 2.89543 23.6046 2 22.5 2C21.3954 2 20.5 2.89543 20.5 4C20.5 5.10457 21.3954 6 22.5 6Z" fill="#CDC4D6"/>
<path d="M25.6265 22.4609L24.2465 22.9709L24.1565 24.8209L26.8665 27.0809C27.1765 27.3009 27.5865 26.9809 27.4565 26.6209L25.9765 22.6209C25.9265 22.4809 25.7665 22.4109 25.6265 22.4609Z" fill="#533566"/>
<path d="M11 29.07L10.99 27.6L8.904 27L6.164 28.65C5.854 28.87 6.014 29.36 6.394 29.36L10.73 29.34C10.88 29.34 11 29.22 11 29.07Z" fill="#533566"/>
<path d="M13.2502 9.60003C14.0902 9.61003 15.4102 9.22003 15.8002 8.24003L16.1602 6.93003L16.5802 5.55003C16.6002 4.54003 15.7802 3.70003 14.7702 3.68003L13.5702 3.66003C12.5602 3.64003 11.7202 4.46003 11.7002 5.47003L11.69 6.23828C11.5355 6.51388 11.4188 6.6678 11.3372 6.77546C11.2376 6.90683 11.1902 6.96932 11.1902 7.09992C11.1803 7.33849 11.447 7.53753 11.6761 7.5399C11.684 8.72477 11.8554 9.5827 13.2502 9.60003Z" fill="#FFC83D"/>
<path d="M12.1503 6.5301C12.0803 6.5301 12.0203 6.4601 12.0203 6.3801V6.3701C12.0303 6.0301 12.3203 5.8501 12.6003 5.8501C12.8803 5.8501 13.1703 6.0501 13.1603 6.3901V6.4001C13.1603 6.4801 13.1003 6.5501 13.0303 6.5501L12.1503 6.5301Z" fill="white"/>
<path d="M12.0503 6.52993C12.0403 6.47993 12.0303 6.42993 12.0303 6.36993C12.0303 6.11993 12.1903 5.92993 12.3903 5.92993C12.5803 5.92993 12.7403 6.12993 12.7303 6.37993C12.7303 6.43993 12.7203 6.48993 12.7003 6.53993L12.0503 6.52993Z" fill="#7D4533"/>
<path d="M12.1604 6.53012C12.1304 6.49012 12.1204 6.43012 12.1204 6.37012C12.1204 6.23012 12.2104 6.12012 12.3204 6.12012C12.4304 6.12012 12.5204 6.24012 12.5204 6.38012C12.5204 6.44012 12.5004 6.49012 12.4704 6.54012L12.1604 6.53012Z" fill="black"/>
<path d="M12.2753 6.19898C12.276 6.14928 12.2453 6.10851 12.2066 6.10792C12.168 6.10733 12.136 6.14714 12.1353 6.19684C12.1345 6.24654 12.1652 6.28731 12.2039 6.2879C12.2425 6.28849 12.2745 6.24868 12.2753 6.19898Z" fill="white"/>
<path d="M12.8319 7.62392C12.8961 7.64683 12.9295 7.71741 12.9066 7.78157C12.7841 8.1246 12.4042 8.30956 12.0589 8.18625C11.9948 8.16333 11.9614 8.09275 11.9843 8.0286C12.0072 7.96444 12.0778 7.93101 12.1419 7.95392C12.3566 8.03061 12.5968 7.91557 12.6743 7.6986C12.6972 7.63444 12.7678 7.60101 12.8319 7.62392Z" fill="#990839"/>
<path d="M13.4002 4.82001C14.9602 4.84001 14.9502 5.79001 14.9502 5.79001C14.9502 5.79001 15.5902 5.64001 15.5602 7.56001C15.5402 8.55001 16.3002 8.35001 16.6502 8.35001C17.2302 8.36001 17.3302 7.37001 16.5602 7.36001C16.5602 7.36001 17.5402 7.36001 17.5802 4.65001C17.6102 2.68001 15.8202 2.43001 14.5902 2.75001C13.7002 2.99001 13.7702 2.64001 12.7302 2.63001C12.3802 2.62001 11.7502 2.81001 11.7302 3.59001C11.7202 4.34001 12.0802 4.80001 13.4002 4.82001Z" fill="#F1A11E"/>
<path d="M14.9502 5.79004C15.3602 5.80004 15.6902 6.14004 15.6902 6.55004C15.6902 6.96004 15.3402 7.29004 14.9302 7.29004" fill="#FFC83D"/>
<path d="M13.1713 5.37619C13.2286 5.42097 13.2388 5.5038 13.1941 5.56112C13.1493 5.61841 13.0666 5.62859 13.0093 5.58389L13.0083 5.58316L13.0004 5.57751C12.9928 5.57226 12.9808 5.56424 12.9647 5.55448C12.9323 5.53492 12.8836 5.50859 12.8212 5.48349C12.6962 5.43327 12.5179 5.38874 12.3039 5.41103C12.2316 5.41857 12.1668 5.36603 12.1593 5.29368C12.1518 5.22134 12.2043 5.15658 12.2766 5.14905C12.5426 5.12134 12.7644 5.17681 12.9194 5.23908C12.9969 5.27023 13.0583 5.30328 13.1009 5.32903C13.1222 5.34193 13.139 5.35305 13.1508 5.36128L13.1648 5.37133C13.1648 5.37133 13.1674 5.37324 13.1691 5.37449L13.1705 5.37555L13.1713 5.37619Z" fill="#D37034"/>
</svg>

<svg xmlns="http://www.w3.org/2000/svg" width="32" height="32" fill="none"><path fill="#FCB100" d="m16.11 7.54 1.17 1.99-2.03 1.22-1.17-2.03 2.03-1.18Z"/><path fill="#FFC83D" d="m23.53 8.744 1.18-3.233.13-.32c.09-.25.26-.74.15-1.02-.11-.27-.46-.55-.88-.69 0 0-.52-.16-.97-.06-.34.08-.28.47-.28.47s-.12.09-.42.31c-.297.211-.167.604-.02.88l-1.048 2.873a.78.78 0 0 1-.602.502l-.016.002-3.485.653.423 2.258 3.456-.647a3.077 3.077 0 0 0 2.38-1.974l.001-.004ZM6.44 13.57c.192.173.412.302.646.384a6.981 6.981 0 0 0 9.408-2.607l-1.987-1.154a4.684 4.684 0 0 1-6.343 1.732l-.424-.375c-.36-.31-.82-.49-1.3-.49H5.07a.454.454 0 0 0-.47.42h-.11c-.26 0-.48.2-.49.46-.01.26.2.48.47.49a.47.47 0 0 0 .45.61h.92l.6.53Zm2.15 8.93h2.458a.615.615 0 0 0-.068.28l.02 5.25H9l-.41-5.53Zm10.91 2.285 5.59.115-.19-1.8-5.4-.83v-.001 2.516Z"/><path fill="#636363" d="m15.02 18.8 1.61 3.93 2.51-.85c.61-.21.95-.87.75-1.49l-1.12-3.56-3.75 1.97Z"/><path fill="#9B9B9B" d="m10.97 18.89 1.83 2.95c.4.66 1.3.81 1.89.3l2.98-2.56s1.25-1.16 1.19-2.11c-.06-.95-.5-1.82-.5-1.82l-5.02 2.03"/><path fill="#FF6723" d="m24.54 6.03-2.26-.83s-.37 1.1-.39 1.34l2.19.74.46-1.25Zm-10.71 4.5c-.33.39-1.84 3.84-.49 7.15l5.37-1.1c.126-.21.04-.344-.084-.537-.082-.128-.182-.283-.246-.503a10.26 10.26 0 0 1-.4-2.957v-.003c-.25-.28-.41-.04-.41-.04l-3.74-2.01Zm-7.29 3.15 1.39-1.96c.65.34 1.13.6 1.12.6L7.7 14.29c-.22-.08-1.16-.61-1.16-.61Zm5.07 8.41c.35-.13 1.06-.47 1.06-.47l-1.7-2.73-1.68.89s-.52.15-.77.65c-.43.86.08 2.16.08 2.16h2.37s.22-.34.64-.5Zm8.34.24v2.46s-1.95.24-2.46-.22c-.44-.39-.58-.85-.86-1.84l2.76-.95.11.49.45.06Z"/><path fill="#FF8101" d="M18.087 11.911a5.118 5.118 0 0 1-.127.739c-.5 2.06-4.33-1.63-4.33-1.63s.29-1.2 1.36-1.6a3.232 3.232 0 0 1 1.137-.224l3.123-.466.31 2.33a.58.58 0 0 1-.47.65l-1.003.201Z"/><path fill="#CDC4D6" d="M22.5 6a2 2 0 1 0 0-4 2 2 0 0 0 0 4Z"/><path fill="#533566" d="m25.627 22.46-1.38.51-.09 1.85 2.71 2.26c.31.22.72-.1.59-.46l-1.48-4a.274.274 0 0 0-.35-.16ZM11 29.07l-.01-1.47-2.086-.6-2.74 1.65c-.31.22-.15.71.23.71l4.336-.02c.15 0 .27-.12.27-.27Z"/><path fill="#FFC83D" d="M13.25 9.6c.84.01 2.16-.38 2.55-1.36l.36-1.31.42-1.38c.02-1.01-.8-1.85-1.81-1.87l-1.2-.02c-1.01-.02-1.85.8-1.87 1.81l-.01.768c-.154.276-.271.43-.353.537-.1.132-.147.194-.147.325-.01.238.257.438.486.44.008 1.185.18 2.043 1.574 2.06Z"/><path fill="#fff" d="M12.15 6.53c-.07 0-.13-.07-.13-.15v-.01c.01-.34.3-.52.58-.52.28 0 .57.2.56.54v.01c0 .08-.06.15-.13.15l-.88-.02Z"/><path fill="#7D4533" d="M12.05 6.53a.777.777 0 0 1-.02-.16c0-.25.16-.44.36-.44.19 0 .35.2.34.45 0 .06-.01.11-.03.16l-.65-.01Z"/><path fill="#000" d="M12.16 6.53a.273.273 0 0 1-.04-.16c0-.14.09-.25.2-.25.11 0 .2.12.2.26 0 .06-.02.11-.05.16l-.31-.01Z"/><path fill="#fff" d="M12.275 6.199c.001-.05-.03-.09-.068-.091-.039 0-.071.04-.072.089 0 .05.03.09.069.09.038.001.07-.038.071-.088Z"/><path fill="#990839" d="M12.832 7.624a.123.123 0 0 1 .075.158.666.666 0 0 1-.848.404.123.123 0 0 1 .083-.232.42.42 0 0 0 .532-.255.123.123 0 0 1 .158-.075Z"/><path fill="#F1A11E" d="M13.4 4.82c1.56.02 1.55.97 1.55.97s.64-.15.61 1.77c-.02.99.74.79 1.09.79.58.01.68-.98-.09-.99 0 0 .98 0 1.02-2.71.03-1.97-1.76-2.22-2.99-1.9-.89.24-.82-.11-1.86-.12-.35-.01-.98.18-1 .96-.01.75.35 1.21 1.67 1.23Z"/><path fill="#FFC83D" d="M14.95 5.79c.41.01.74.35.74.76 0 .41-.35.74-.76.74"/><path fill="#D37034" d="M13.171 5.376a.132.132 0 0 1-.162.208L13 5.577a1.007 1.007 0 0 0-.18-.094 1.083 1.083 0 0 0-.516-.073.132.132 0 0 1-.027-.262 1.347 1.347 0 0 1 .874.212l.014.01.004.003.002.002Z"/></svg>
